X: 30211
M: C
L: 1/8
K: D
V: 1 staves=3
|: A>A |\
V: 2
z2 |\
[F2A,2][FA,]>[FA,] [F2A,2]z2 | [A2D2][AD]>[AD] [A2D2]c>d |\
e>dc>B c>BA>G | F4 Dzz2 |\
[E2A,2][EA,]>[EA,] [E2A,2]z2 | [F2A,2][FA,]>[FA,] [F2A,2]z2 |\
[E2D2][E2D2] [E2B,2][E2B,2] | [E2C2][EC]>[EC] [E2C2] :|
|: z2 |\
[D2B,2][DB,]>[DB,] [D2B,2]z2 | [D2A,2][DA,]>[DA,] [D2A,2]z2 |\
[D2B,2][DB,]>[DB,] [D2B,2]z2 | [D2A,2][DA,]>[DA,] [D2A,2]z2 |\
V: 3 clef=bass middle=d
z2 |\
d2d>d d2z2 | d2d>d d2z2 | d2d>d d2z2 | d2d>d d2z2 |\
c2c>c c2z2 | d2d>d d2z2 | e2e2 e2e2 | a2a>a a2 :|
|: z2 |\
g2g>g g2z2 | f2f>f f2z2 | e2e2 A2A2 | d2d>d d2z2 |\
g2g>g g2z2 | f2f>f f2z2 | e2e2 A2A2 | d2d>d d2 :|


